X: 9017
T: Dà Bhfaigheann Mo Rogha De Thriúr Acu
R: slide
M: 12/8
K: Dmajor
|:A2F A2B d2e f2e|d2B B3 d2B B2d|
A2F A2B d2e f2g|a2a a2f e3 d3|
|:a3 a2g f2 g a3|b3 b2a g2 a b3|
a3 a2g f2 g a2f|d2e f2d e3 d3:|

